; G-Code generated by Simplify3D(R) Version 3.0.2
; jun 21, 2017 at 9:19:32 
; Settings Summary
;   processName,Process1
;   applyToModels,a_2knob_finoz1,a_2knob_finoz1(2),a_2knob_finoz1(5),a_2knob_finoz1(2)(2),a_2knob_finoz1(6),a_2knob_finoz1(2)(3)
;   profileName,Prusa i3 rework (modified)
;   profileVersion,2017-06-12 12:05:43
;   baseProfile,Default
;   printMaterial,ABS
;   printQuality,Medium
;   printExtruders,
;   extruderName,Extruder 1
;   extruderToolheadNumber,0
;   extruderDiameter,0.4
;   extruderAutoWidth,0
;   extruderWidth,0.4
;   extrusionMultiplier,1
;   extruderUseRetract,1
;   extruderRetractionDistance,0.5
;   extruderExtraRestartDistance,0
;   extruderRetractionZLift,0
;   extruderRetractionSpeed,1800
;   extruderUseCoasting,0
;   extruderCoastingDistance,0.2
;   extruderUseWipe,0
;   extruderWipeDistance,5
;   primaryExtruder,0
;   layerHeight,0.2
;   topSolidLayers,3
;   bottomSolidLayers,3
;   perimeterOutlines,2
;   printPerimetersInsideOut,1
;   startPointOption,2
;   startPointOriginX,0
;   startPointOriginY,0
;   startPointOriginZ,300
;   sequentialIslands,0
;   spiralVaseMode,0
;   firstLayerHeightPercentage,90
;   firstLayerWidthPercentage,100
;   firstLayerUnderspeed,0.5
;   useRaft,1
;   raftExtruder,0
;   raftLayers,3
;   raftOffset,3
;   raftSeparationDistance,0.14
;   raftInfill,85
;   disableRaftBaseLayers,0
;   useSkirt,1
;   skirtExtruder,0
;   skirtLayers,1
;   skirtOutlines,3
;   skirtOffset,4
;   usePrimePillar,0
;   primePillarExtruder,999
;   primePillarWidth,12
;   primePillarLocation,7
;   primePillarSpeedMultiplier,1
;   useOozeShield,0
;   oozeShieldExtruder,999
;   oozeShieldOffset,2
;   oozeShieldOutlines,1
;   oozeShieldSidewallShape,1
;   oozeShieldSidewallAngle,30
;   oozeShieldSpeedMultiplier,1
;   infillExtruder,0
;   internalInfillPattern,Rectilinear
;   externalInfillPattern,Rectilinear
;   infillPercentage,20
;   outlineOverlapPercentage,15
;   infillExtrusionWidthPercentage,100
;   minInfillLength,5
;   infillLayerInterval,1
;   infillAngles,45,-45
;   overlapInfillAngles,0
;   generateSupport,0
;   supportExtruder,0
;   supportInfillPercentage,30
;   supportExtraInflation,0
;   denseSupportLayers,0
;   denseSupportInfillPercentage,70
;   supportLayerInterval,1
;   supportHorizontalPartOffset,0.3
;   supportUpperSeparationLayers,1
;   supportLowerSeparationLayers,1
;   supportType,0
;   supportGridSpacing,4
;   maxOverhangAngle,45
;   supportAngles,0
;   temperatureName,Extruder 1 Temperature,Heated Bed
;   temperatureNumber,0,0
;   temperatureSetpointCount,1,1
;   temperatureSetpointLayers,1,1
;   temperatureSetpointTemperatures,240,100
;   temperatureStabilizeAtStartup,1,1
;   temperatureHeatedBed,0,1
;   temperatureRelayBetweenLayers,0,0
;   temperatureRelayBetweenLoops,0,0
;   fanLayers,1
;   fanSpeeds,0
;   blipFanToFullPower,0
;   adjustSpeedForCooling,1
;   minSpeedLayerTime,15
;   minCoolingSpeedSlowdown,35
;   increaseFanForCooling,1
;   minFanLayerTime,20
;   maxCoolingFanSpeed,100
;   increaseFanForBridging,1
;   bridgingFanSpeed,100
;   use5D,1
;   relativeEdistances,0
;   allowEaxisZeroing,1
;   independentExtruderAxes,0
;   includeM10123,0
;   stickySupport,1
;   applyToolheadOffsets,0
;   gcodeXoffset,0
;   gcodeYoffset,0
;   gcodeZoffset,0
;   overrideMachineDefinition,1
;   machineTypeOverride,0
;   strokeXoverride,180
;   strokeYoverride,180
;   strokeZoverride,180
;   originOffsetXoverride,0
;   originOffsetYoverride,0
;   originOffsetZoverride,0
;   homeXdirOverride,-1
;   homeYdirOverride,-1
;   homeZdirOverride,-1
;   flipXoverride,1
;   flipYoverride,-1
;   flipZoverride,1
;   toolheadOffsets,0,0|0,0|0,0|0,0|0,0|0,0
;   overrideFirmwareConfiguration,1
;   firmwareTypeOverride,RepRap (Marlin/Repetier/Sprinter)
;   GPXconfigOverride,r2
;   baudRateOverride,250000
;   overridePrinterModels,0
;   printerModelsOverride
;   startingGcode,G28 ; home all axes
;   layerChangeGcode,
;   retractionGcode,
;   toolChangeGcode,
;   endingGcode,M104 S0 ; turn off extruder,M140 S0 ; turn off bed,G28 X ;  20170612  home x,M84 ; disable motors
;   createX3G,0
;   celebration,0
;   celebrationSong,Random Song
;   createMB5G,0
;   postProcessing,
;   defaultSpeed,3600
;   outlineUnderspeed,0.5
;   solidInfillUnderspeed,0.8
;   supportUnderspeed,0.8
;   rapidXYspeed,4800
;   rapidZspeed,1000
;   minBridgingArea,50
;   bridgingExtraInflation,0
;   bridgingExtrusionMultiplier,1
;   bridgingSpeedMultiplier,1
;   filamentDiameter,1.75
;   filamentPricePerKg,70
;   filamentDensity,1.25
;   useMinPrintHeight,0
;   minPrintHeight,0
;   useMaxPrintHeight,0
;   maxPrintHeight,0
;   useDiaphragm,0
;   diaphragmLayerInterval,20
;   robustSlicing,1
;   mergeAllIntoSolid,0
;   onlyRetractWhenCrossingOutline,1
;   retractBetweenLayers,1
;   useRetractionMinTravel,0
;   retractionMinTravel,3
;   retractWhileWiping,0
;   onlyWipeOutlines,1
;   avoidCrossingOutline,0
;   maxMovementDetourFactor,3
;   toolChangeRetractionDistance,12
;   toolChangeExtraRestartDistance,-0.5
;   toolChangeRetractionSpeed,600
;   allowThinWallGapFill,1
;   thinWallAllowedOverlapPercentage,10
;   horizontalSizeCompensation,0
G90
M82
M106 S0
M140 S100
M190 S100
M104 S240 T0
M109 S240 T0
G28 ; home all axes
G92 E0
G1 E-0.5000 F1800
G1 Z0.450 F1000
; layer 1, Z = 0.45
T0
; tool H0.500 W0.400
; skirt
G1 X61.832 Y55.276 F4800
G1 E0.0000 F540
G92 E0
G1 X66.026 Y51.082 E0.4931 F1800
G1 X66.189 Y50.973 E0.5095
G1 X67.842 Y50.288 E0.6582
G1 X68.035 Y50.250 E0.6746
G1 X111.965 Y50.250 E4.3274
G1 X112.158 Y50.288 E4.3438
G1 X113.811 Y50.973 E4.4925
G1 X113.974 Y51.082 E4.5089
G1 X118.168 Y55.276 E5.0020
G1 X118.277 Y55.439 E5.0184
G1 X118.962 Y57.092 E5.1670
G1 X119.000 Y57.285 E5.1834
G1 X119.000 Y122.715 E10.6240
G1 X118.962 Y122.908 E10.6404
G1 X118.277 Y124.561 E10.7891
G1 X118.168 Y124.724 E10.8054
G1 X113.974 Y128.918 E11.2986
G1 X113.811 Y129.027 E11.3149
G1 X112.158 Y129.712 E11.4636
G1 X111.965 Y129.750 E11.4800
G1 X68.035 Y129.750 E15.1328
G1 X67.842 Y129.712 E15.1492
G1 X66.189 Y129.027 E15.2979
G1 X66.026 Y128.918 E15.3143
G1 X61.832 Y124.724 E15.8074
G1 X61.723 Y124.561 E15.8238
G1 X61.038 Y122.908 E15.9725
G1 X61.000 Y122.715 E15.9889
G1 X61.000 Y57.285 E21.4294
G1 X61.038 Y57.092 E21.4458
G1 X61.723 Y55.439 E21.5945
G1 X61.832 Y55.276 E21.6109
G1 X62.143 Y55.531 F4800
G92 E0
G1 X66.281 Y51.393 E0.4866 F1800
G1 X66.379 Y51.327 E0.4964
G1 X67.958 Y50.673 E0.6385
G1 X68.074 Y50.650 E0.6484
G1 X111.926 Y50.650 E4.2946
G1 X112.042 Y50.673 E4.3045
G1 X113.621 Y51.327 E4.4466
G1 X113.719 Y51.393 E4.4564
G1 X117.857 Y55.531 E4.9430
G1 X117.923 Y55.629 E4.9528
G1 X118.577 Y57.208 E5.0950
G1 X118.600 Y57.324 E5.1048
G1 X118.600 Y122.676 E10.5388
G1 X118.577 Y122.792 E10.5486
G1 X117.923 Y124.371 E10.6908
G1 X117.857 Y124.469 E10.7006
G1 X113.719 Y128.607 E11.1872
G1 X113.621 Y128.673 E11.1970
G1 X112.042 Y129.327 E11.3392
G1 X111.926 Y129.350 E11.3490
G1 X68.074 Y129.350 E14.9953
G1 X67.958 Y129.327 E15.0051
G1 X66.379 Y128.673 E15.1472
G1 X66.281 Y128.607 E15.1571
G1 X62.143 Y124.469 E15.6436
G1 X62.077 Y124.371 E15.6534
G1 X61.423 Y122.792 E15.7956
G1 X61.400 Y122.676 E15.8054
G1 X61.400 Y57.324 E21.2394
G1 X61.423 Y57.208 E21.2493
G1 X62.077 Y55.629 E21.3914
G1 X62.143 Y55.531 E21.4012
G1 X62.454 Y55.786 F4800
G92 E0
G1 X66.536 Y51.704 E0.4800 F1800
G1 X66.568 Y51.682 E0.4833
G1 X68.075 Y51.058 E0.6189
G1 X68.114 Y51.050 E0.6222
G1 X111.886 Y51.050 E4.2619
G1 X111.925 Y51.058 E4.2652
G1 X113.432 Y51.682 E4.4008
G1 X113.464 Y51.704 E4.4040
G1 X117.546 Y55.786 E4.8840
G1 X117.568 Y55.818 E4.8873
G1 X118.192 Y57.325 E5.0229
G1 X118.200 Y57.364 E5.0262
G1 X118.200 Y122.636 E10.4536
G1 X118.192 Y122.675 E10.4569
G1 X117.568 Y124.182 E10.5925
G1 X117.546 Y124.214 E10.5958
G1 X113.464 Y128.296 E11.0758
G1 X113.432 Y128.318 E11.0791
G1 X111.925 Y128.942 E11.2147
G1 X111.886 Y128.950 E11.2179
G1 X68.114 Y128.950 E14.8577
G1 X68.075 Y128.942 E14.8609
G1 X66.568 Y128.318 E14.9965
G1 X66.536 Y128.296 E14.9998
G1 X62.454 Y124.214 E15.4798
G1 X62.432 Y124.182 E15.4831
G1 X61.808 Y122.675 E15.6187
G1 X61.800 Y122.636 E15.6220
G1 X61.800 Y57.364 E21.0494
G1 X61.808 Y57.325 E21.0527
G1 X62.432 Y55.818 E21.1883
G1 X62.454 Y55.786 E21.1916
; tool H0.500 W0.800
; raft
G1 X66.400 Y58.345 F4800
G92 E0
G1 X69.095 Y55.650 E0.6337 F450
G1 X89.405 Y55.650 E4.0114
G1 X90.000 Y56.245 E4.1513
G1 X90.595 Y55.650 E4.2911
G1 X110.905 Y55.650 E7.6688
G1 X113.600 Y58.345 E8.3025
G1 X113.600 Y78.655 E11.6802
G1 X113.005 Y79.250 E11.8201
G1 X113.600 Y79.845 E11.9599
G1 X113.600 Y100.155 E15.3376
G1 X113.005 Y100.750 E15.4775
G1 X113.600 Y101.345 E15.6173
G1 X113.600 Y121.655 E18.9950
G1 X110.905 Y124.350 E19.6287
G1 X90.595 Y124.350 E23.0064
G1 X90.000 Y123.755 E23.1463
G1 X89.405 Y124.350 E23.2861
G1 X69.095 Y124.350 E26.6638
G1 X66.400 Y121.655 E27.2976
G1 X66.400 Y101.345 E30.6752
G1 X66.995 Y100.750 E30.8151
G1 X66.400 Y100.155 E30.9549
G1 X66.400 Y79.845 E34.3326
G1 X66.995 Y79.250 E34.4725
G1 X66.400 Y78.655 E34.6123
G1 X66.400 Y58.345 E37.9900
G1 X67.876 Y58.000 F4800
G92 E0
G1 X112.124 Y58.000 E7.3585 F450
G1 X112.800 Y58.676 E7.5175
G1 X112.800 Y60.286 E7.7852
G1 X67.200 Y60.286 E15.3685
G1 X67.200 Y62.571 E15.7486
G1 X112.800 Y62.571 E23.3319
G1 X112.800 Y64.857 E23.7120
G1 X67.200 Y64.857 E31.2953
G1 X67.200 Y67.143 E31.6754
G1 X112.800 Y67.143 E39.2587
G1 X112.800 Y69.429 E39.6389
G1 X67.200 Y69.429 E47.2222
G1 X67.200 Y71.714 E47.6023
G1 X112.800 Y71.714 E55.1856
G1 X112.800 Y74.000 E55.5657
G1 X67.200 Y74.000 E63.1490
G1 X67.200 Y76.286 E63.5291
G1 X112.800 Y76.286 E71.1125
G1 X112.800 Y78.324 E71.4514
G1 X112.553 Y78.571 E71.5096
G1 X67.447 Y78.571 E79.0106
G1 X68.126 Y79.250 E79.1702
G1 X67.200 Y80.176 E79.3880
G1 X67.200 Y80.857 E79.5013
G1 X112.800 Y80.857 E87.0846
G1 X112.800 Y83.143 E87.4647
G1 X67.200 Y83.143 E95.0480
G1 X67.200 Y85.429 E95.4281
G1 X112.800 Y85.429 E103.0114
G1 X112.800 Y87.714 E103.3916
G1 X67.200 Y87.714 E110.9749
G1 X67.200 Y90.000 E111.3550
G1 X112.800 Y90.000 E118.9383
G1 X112.800 Y92.286 E119.3184
G1 X67.200 Y92.286 E126.9017
G1 X67.200 Y94.571 E127.2818
G1 X112.800 Y94.571 E134.8651
G1 X112.800 Y96.857 E135.2453
G1 X67.200 Y96.857 E142.8286
G1 X67.200 Y99.143 E143.2087
G1 X112.800 Y99.143 E150.7920
G1 X112.800 Y99.824 E150.9053
G1 X111.874 Y100.750 E151.1230
G1 X112.553 Y101.429 E151.2826
G1 X67.447 Y101.429 E158.7837
G1 X67.200 Y101.676 E158.8418
G1 X67.200 Y103.714 E159.1808
G1 X112.800 Y103.714 E166.7641
G1 X112.800 Y106.000 E167.1442
G1 X67.200 Y106.000 E174.7276
G1 X67.200 Y108.286 E175.1077
G1 X112.800 Y108.286 E182.6910
G1 X112.800 Y110.571 E183.0711
G1 X67.200 Y110.571 E190.6544
G1 X67.200 Y112.857 E191.0345
G1 X112.800 Y112.857 E198.6178
G1 X112.800 Y115.143 E198.9980
G1 X67.200 Y115.143 E206.5813
G1 X67.200 Y117.429 E206.9614
G1 X112.800 Y117.429 E214.5447
G1 X112.800 Y119.714 E214.9248
G1 X67.200 Y119.714 E222.5081
G1 X67.200 Y121.324 E222.7758
G1 X67.876 Y122.000 E222.9348
G1 X112.124 Y122.000 E230.2933
G92 E0
G1 E-0.5000 F1800
; layer 2, Z = 0.95
; raft
G1 X113.600 Y121.655 F4800
G1 Z0.950 F1000
G1 E0.0000 F1800
G92 E0
G1 X110.905 Y124.350 E0.6337 F900
G1 X90.595 Y124.350 E4.0114
G1 X90.000 Y123.755 E4.1513
G1 X89.405 Y124.350 E4.2911
G1 X69.095 Y124.350 E7.6688
G1 X66.400 Y121.655 E8.3025
G1 X66.400 Y101.345 E11.6802
G1 X66.995 Y100.750 E11.8201
G1 X66.400 Y100.155 E11.9599
G1 X66.400 Y79.845 E15.3376
G1 X66.995 Y79.250 E15.4775
G1 X66.400 Y78.655 E15.6173
G1 X66.400 Y58.345 E18.9950
G1 X69.095 Y55.650 E19.6287
G1 X89.405 Y55.650 E23.0064
G1 X90.000 Y56.245 E23.1463
G1 X90.595 Y55.650 E23.2861
G1 X110.905 Y55.650 E26.6638
G1 X113.600 Y58.345 E27.2975
G1 X113.600 Y78.655 E30.6752
G1 X113.005 Y79.250 E30.8151
G1 X113.600 Y79.845 E30.9549
G1 X113.600 Y100.155 E34.3326
G1 X113.005 Y100.750 E34.4725
G1 X113.600 Y101.345 E34.6123
G1 X113.600 Y121.655 E37.9900
G1 X112.124 Y122.000 F4800
G92 E0
G1 X67.876 Y122.000 E7.3585 F900
G1 X67.200 Y121.324 E7.5175
G1 X67.200 Y119.714 E7.7852
G1 X112.800 Y119.714 E15.3685
G1 X112.800 Y117.429 E15.7486
G1 X67.200 Y117.429 E23.3319
G1 X67.200 Y115.143 E23.7120
G1 X112.800 Y115.143 E31.2953
G1 X112.800 Y112.857 E31.6754
G1 X67.200 Y112.857 E39.2587
G1 X67.200 Y110.571 E39.6389
G1 X112.800 Y110.571 E47.2222
G1 X112.800 Y108.286 E47.6023
G1 X67.200 Y108.286 E55.1856
G1 X67.200 Y106.000 E55.5657
G1 X112.800 Y106.000 E63.1490
G1 X112.800 Y103.714 E63.5291
G1 X67.200 Y103.714 E71.1124
G1 X67.200 Y101.676 E71.4514
G1 X67.447 Y101.429 E71.5096
G1 X112.553 Y101.429 E79.0106
G1 X111.874 Y100.750 E79.1702
G1 X112.800 Y99.824 E79.3880
G1 X112.800 Y99.143 E79.5013
G1 X67.200 Y99.143 E87.0846
G1 X67.200 Y96.857 E87.4647
G1 X112.800 Y96.857 E95.0480
G1 X112.800 Y94.571 E95.4281
G1 X67.200 Y94.571 E103.0114
G1 X67.200 Y92.286 E103.3916
G1 X112.800 Y92.286 E110.9749
G1 X112.800 Y90.000 E111.3550
G1 X67.200 Y90.000 E118.9383
G1 X67.200 Y87.714 E119.3184
G1 X112.800 Y87.714 E126.9017
G1 X112.800 Y85.429 E127.2818
G1 X67.200 Y85.429 E134.8651
G1 X67.200 Y83.143 E135.2453
G1 X112.800 Y83.143 E142.8286
G1 X112.800 Y80.857 E143.2087
G1 X67.200 Y80.857 E150.7920
G1 X67.200 Y80.176 E150.9053
G1 X68.126 Y79.250 E151.1231
G1 X67.447 Y78.571 E151.2826
G1 X112.553 Y78.571 E158.7837
G1 X112.800 Y78.324 E158.8418
G1 X112.800 Y76.286 E159.1808
G1 X67.200 Y76.286 E166.7641
G1 X67.200 Y74.000 E167.1442
G1 X112.800 Y74.000 E174.7276
G1 X112.800 Y71.714 E175.1077
G1 X67.200 Y71.714 E182.6910
G1 X67.200 Y69.429 E183.0711
G1 X112.800 Y69.429 E190.6544
G1 X112.800 Y67.143 E191.0345
G1 X67.200 Y67.143 E198.6178
G1 X67.200 Y64.857 E198.9979
G1 X112.800 Y64.857 E206.5813
G1 X112.800 Y62.571 E206.9614
G1 X67.200 Y62.571 E214.5447
G1 X67.200 Y60.286 E214.9248
G1 X112.800 Y60.286 E222.5081
G1 X112.800 Y58.676 E222.7758
G1 X112.124 Y58.000 E222.9348
G1 X67.876 Y58.000 E230.2933
G92 E0
G1 E-0.5000 F1800
; layer 3, Z = 1.32647
; tool H0.376 W0.640
; raft
G1 X113.040 Y57.671 F4800
G1 Z1.326 F1000
G1 E0.0000 F1800
G92 E0
G1 X113.040 Y122.329 E6.4768 F1800
G1 X111.760 Y123.609 E6.6581
G1 X111.760 Y56.391 E13.3914
G1 X110.939 Y55.570 E13.5078
G1 X110.480 Y55.570 E13.5537
G1 X110.480 Y124.430 E20.4515
G1 X109.200 Y124.430 E20.5797
G1 X109.200 Y55.570 E27.4775
G1 X107.920 Y55.570 E27.6058
G1 X107.920 Y124.430 E34.5036
G1 X106.640 Y124.430 E34.6318
G1 X106.640 Y55.570 E41.5296
G1 X105.360 Y55.570 E41.6579
G1 X105.360 Y124.430 E48.5557
G1 X104.080 Y124.430 E48.6839
G1 X104.080 Y55.570 E55.5817
G1 X102.800 Y55.570 E55.7099
G1 X102.800 Y124.430 E62.6078
G1 X101.520 Y124.430 E62.7360
G1 X101.520 Y55.570 E69.6338
G1 X100.240 Y55.570 E69.7620
G1 X100.240 Y124.430 E76.6599
G1 X98.960 Y124.430 E76.7881
G1 X98.960 Y55.570 E83.6859
G1 X97.680 Y55.570 E83.8141
G1 X97.680 Y124.430 E90.7119
G1 X96.400 Y124.430 E90.8402
G1 X96.400 Y55.570 E97.7380
G1 X95.120 Y55.570 E97.8662
G1 X95.120 Y124.430 E104.7640
G1 X93.840 Y124.430 E104.8922
G1 X93.840 Y55.570 E111.7901
G1 X92.560 Y55.570 E111.9183
G1 X92.560 Y124.430 E118.8161
G1 X91.280 Y124.430 E118.9443
G1 X91.280 Y55.570 E125.8422
G1 X90.561 Y55.570 E125.9141
G1 X90.000 Y56.131 E125.9937
G1 X90.000 Y123.869 E132.7790
G1 X90.000 Y123.869 E132.7790
G1 X89.439 Y124.430 E132.8586
G1 X88.720 Y124.430 E132.9305
G1 X88.720 Y55.570 E139.8283
G1 X87.440 Y55.570 E139.9566
G1 X87.440 Y124.430 E146.8544
G1 X86.160 Y124.430 E146.9826
G1 X86.160 Y55.570 E153.8804
G1 X84.880 Y55.570 E154.0087
G1 X84.880 Y124.430 E160.9065
G1 X83.600 Y124.430 E161.0347
G1 X83.600 Y55.570 E167.9325
